X: 25338
T: Many A Wild Night
R: polka
M: 2/4
K: Gmajor
B/c/|:dg ge|dB BA/B/|ce ed|Bd GB/c/|
dg ge|dB BA/B/|ce ed|G2 G2:|
|:GD/G/ Bd|cA AG|FD/F/ Ac|BG GF|
GD/G/ Bd|cA AG|Fe dF|1 G2 G2:|2 G2- G||

